X: 1
T: Flags of Dublin, The
M: 4/4
L: 1/8
R: reel
K: Dmaj
|:dB | A2 FA BddB | A2 FA BEEB | A2 FA Bddg | fdBc d2 dB |
AD (3FGA BddB | AD (3FGA BEEB | A2 FA Bddg | fdBc d2 (3ABc  :||
|:dddg fAdf | eAce dcBA | dddg fAdf | eAce d2 (3ABc |
dddg fAdf | eAce dcBA | GB B2 Bcdg | fdBc d3B :||
